!!! OTL: Berkowitz242
!!! Chapter: 1
!!! Section: II
!!! Page: 56
!!! Mode: 
!!! Encoder: DJB
**kern
*staff1
*I"Piano
=1-
*clefF4
*k[b-]
*d:
*met(c|)
*M2/2
4r
4r
4r
4A\
=2
4F\
4D\
4E\
4C#/
=3
4D\
4D\
4D\
4A\
=4
4F\
4D\
4E\
4C#/
=5
2D\
4r
4A\
=6
4F\
4D\
4E\
8D/L
8C#/J
=7
4D\
4D\
4D\
4A\
=8
4F\
8E\L
8D\J
4D\
4C#/
=9
!!linebreak:original
2D\
4r
4A\
=10
4d\
4d\
8d\L
8c\
8B-\
8A\J
=11
4G\
4G\
4G\
8A\L
8B-\J
=12
4c\
4c\
8c\L
8B-\
8A\
8G\J
=13
4F\
4C/
4F\
8G\L
8A\J
=14
4B-\
4B-\
8B-\L
8A\
8G\
8F\J
=15
4E\
4E\
4E\
8F\L
8G\J
=16
!!linebreak:original
4A\
4D\
8F\L
8E\
8D\
8C#\J
=17
2D\
4r
4A\
=18
4F\
4D\
4E\
4C#/
=19
4D\
4D\
4D\
4A\
=20
4F\
8E\L
8D\J
4E\
4C#/
=21
2D\
2r
==
*-
